svgs/soundcloud.svg

<svg width="192" height="192" viewBox="0 0 192 192" fill="none" xmlns="http://www.w3.org/2000/svg"><path d="M14 95v28m24-41v48m24-57v58" stroke="#000" stroke-width="12" stroke-linecap="round" stroke-linejoin="round"/><path d="M86 131h-6a6 6 0 0 0 6 6v-6Zm61.964-37.303-5.995-.257a6.001 6.001 0 0 0 9.01 5.444l-3.015-5.187ZM86 60.5l-3.542-4.843A6 6 0 0 0 80 60.5h6Zm23 64.5H86v12h23v-12Zm49 0h-49v12h49v-12Zm14-14c0 7.732-6.268 14-14 14v12c14.359 0 26-11.641 26-26h-12Zm-14-14c7.732 0 14 6.268 14 14h12c0-14.36-11.641-26-26-26v12Zm-7.021 1.884A13.91 13.91 0 0 1 158 97V85c-4.745 0-9.21 1.277-13.051 3.51l6.03 10.374ZM142 92c0 .483-.01.963-.031 1.44l11.989.513c.028-.648.042-1.299.042-1.953h-12Zm-33-33c18.225 0 33 14.775 33 33h12c0-24.853-20.147-45-45-45v12Zm-19.458 6.344A32.825 32.825 0 0 1 109 59V47c-9.917 0-19.1 3.215-26.542 8.658l7.084 9.686ZM80 60.5V131h12V60.5H80Z" fill="#000"/></svg>

<?xml version="1.0" encoding="UTF-8" standalone="no"?><svg xmlns:android="http://schemas.android.com/apk/res/android" height="192" width="192" xmlns="http://www.w3.org/2000/svg">
  <path d="M14,95V123" fill="#000000" fill-opacity="0.0" stroke="#000000" stroke-linecap="round" stroke-linejoin="round" stroke-width="12"/>
  <path d="M38,82V130" fill="#000000" fill-opacity="0.0" stroke="#000000" stroke-linecap="round" stroke-linejoin="round" stroke-width="12"/>
  <path d="M62,73V131" fill="#000000" fill-opacity="0.0" stroke="#000000" stroke-linecap="round" stroke-linejoin="round" stroke-width="12"/>
  <path d="M86,131H80C80,134.314 82.686,137 86,137V131ZM147.964,93.697L141.969,93.44C141.876,95.631 142.984,97.698 144.861,98.832C146.738,99.966 149.083,99.986 150.979,98.884L147.964,93.697ZM86,60.501L82.458,55.658C80.913,56.788 80,58.587 80,60.501H86ZM109,125H86V137H109V125ZM158,125H109V137H158V125ZM172,111C172,118.732 165.732,125 158,125V137C172.359,137 184,125.359 184,111H172ZM158,97C165.732,97 172,103.268 172,111H184C184,96.641 172.359,85 158,85V97ZM150.979,98.884C153.038,97.687 155.43,97 158,97V85C153.255,85 148.79,86.277 144.949,88.509L150.979,98.884ZM142,92C142,92.483 141.99,92.963 141.969,93.44L153.958,93.953C153.986,93.305 154,92.654 154,92H142ZM109,59C127.225,59 142,73.775 142,92H154C154,67.147 133.853,47 109,47V59ZM89.542,65.343C94.997,61.354 101.715,59 109,59V47C99.083,47 89.899,50.215 82.458,55.658L89.542,65.343ZM80,60.501V131H92V60.501H80Z" fill="#000000"/>
</svg>
